X: 28587
T: Murray River, The
R: jig
M: 6/8
K: Gmajor
A|:B>cB B>AG|D3 D>GA|B>AB c>BA|E3 E>AB|c>dc c>BA|
f>gf f2 e|1 d>ed d>^cd|e>dc BGA:|2 d>ed c>BA|G3 G2A||
|:B>GG G>A_B|A>=FF F2 E|D>GG G>FG|A>dd d2 c|
B>GG G>A_B|A>=FF F2 E|D>GG F>GA|B>GG G3:|

